X:43
M:4/4
L:1/4
K:Ab
F2 c B | A G F2 | c2 e d | c B c2 | z A G F | c A B A | !fermata!G !sintro!F c B | A2 G2 | F4 !eintro!|]
